hero/solid/arrow-small-left.svg

<svg width="24" height="24" viewBox="0 0 24 24" fill="none" xmlns="http://www.w3.org/2000/svg">
<path fill-rule="evenodd" clip-rule="evenodd" d="M20.25 12C20.25 12.4142 19.9142 12.75 19.5 12.75L6.31066 12.75L11.7803 18.2197C12.0732 18.5126 12.0732 18.9874 11.7803 19.2803C11.4874 19.5732 11.0126 19.5732 10.7197 19.2803L3.96967 12.5303C3.67678 12.2374 3.67678 11.7626 3.96967 11.4697L10.7197 4.71967C11.0126 4.42678 11.4874 4.42678 11.7803 4.71967C12.0732 5.01256 12.0732 5.48744 11.7803 5.78033L6.31066 11.25L19.5 11.25C19.9142 11.25 20.25 11.5858 20.25 12Z" fill="#0F172A"/>
</svg>

<svg viewBox="0 0 24 24" xmlns="http://www.w3.org/2000/svg"><path fill-rule="evenodd" d="M20.25 12v0c0 .41-.34.75-.75.75H6.31l5.47 5.47h-.001c.3.28.31.75.03 1.06 -.29.3-.76.31-1.06.03 -.02-.02-.03-.03-.04-.04l-6.75-6.75v-.001c-.3-.3-.3-.77 0-1.06l6.75-6.75v0c.28-.31.75-.32 1.06-.04 .3.28.31.75.03 1.06 -.02.01-.03.02-.04.03l-5.47 5.47h13.19v0c.41 0 .75.33.75.75Z"/></svg>
